X:240
T:Reel 240
M:4/4
K:Emin
L:1/8
EF|GEE^D EDB,D|DEDE DFED|GEED  (3E^C^D  (3B,A,B, |A,DDE FAGF|E^DEF GFGA|BdcA BcBA|GFGA BAGE|^DEFG AFDF|GEFD EDB,A,|B,EEF GFGA|BGEF GABG|B,EDF A2GF|GEB,E DEDE|FDDD BGAF|GEFD EFGA|B^cdB AGGA|GFGA BGEF|GEFD ADBD|GAGF EDB,C|DEDA AGGA|G<EBG DGBA|GEFD BEGB|GFGA BAGE|DEDA AGFD|
